assets/icons/actions/download.svg

<svg viewBox="0 0 24 24" xmlns="http://www.w3.org/2000/svg">
<path d="M12 15.575C11.8667 15.575 11.7417 15.554 11.625 15.512C11.5083 15.4707 11.4 15.4 11.3 15.3L7.7 11.7C7.51667 11.5167 7.425 11.2833 7.425 11C7.425 10.7167 7.51667 10.4833 7.7 10.3C7.88333 10.1167 8.12067 10.0207 8.412 10.012C8.704 10.004 8.94167 10.0917 9.125 10.275L11 12.15V5C11 4.71667 11.096 4.479 11.288 4.287C11.4793 4.09567 11.7167 4 12 4C12.2833 4 12.521 4.09567 12.713 4.287C12.9043 4.479 13 4.71667 13 5V12.15L14.875 10.275C15.0583 10.0917 15.296 10.004 15.588 10.012C15.8793 10.0207 16.1167 10.1167 16.3 10.3C16.4833 10.4833 16.575 10.7167 16.575 11C16.575 11.2833 16.4833 11.5167 16.3 11.7L12.7 15.3C12.6 15.4 12.4917 15.4707 12.375 15.512C12.2583 15.554 12.1333 15.575 12 15.575ZM6 20C5.45 20 4.97933 19.8043 4.588 19.413C4.196 19.021 4 18.55 4 18V16C4 15.7167 4.09567 15.479 4.287 15.287C4.479 15.0957 4.71667 15 5 15C5.28333 15 5.521 15.0957 5.713 15.287C5.90433 15.479 6 15.7167 6 16V18H18V16C18 15.7167 18.096 15.479 18.288 15.287C18.4793 15.0957 18.7167 15 19 15C19.2833 15 19.5207 15.0957 19.712 15.287C19.904 15.479 20 15.7167 20 16V18C20 18.55 19.8043 19.021 19.413 19.413C19.021 19.8043 18.55 20 18 20H6Z" fill="inherit"/>
</svg>

<svg viewBox="0 0 24 24" xmlns="http://www.w3.org/2000/svg"><path d="M12 15.6h-.4a.9.9 0 0 1-.3-.3l-3.6-3.6a1 1 0 0 1-.3-.7c0-.3.1-.5.3-.7.2-.2.4-.3.7-.3.3 0 .5 0 .7.3L11 12V5c0-.3.1-.5.3-.7.2-.2.4-.3.7-.3.3 0 .5.1.7.3.2.2.3.4.3.7v7.2l1.9-2 .7-.2c.3 0 .5.1.7.3.2.2.3.4.3.7 0 .3-.1.5-.3.7l-3.6 3.6-.3.2H12ZM6 20a2 2 0 0 1-1.4-.6A2 2 0 0 1 4 18v-2c0-.3.1-.5.3-.7.2-.2.4-.3.7-.3.3 0 .5.1.7.3.2.2.3.4.3.7v2h12v-2c0-.3.1-.5.3-.7.2-.2.4-.3.7-.3.3 0 .5.1.7.3.2.2.3.4.3.7v2c0 .6-.2 1-.6 1.4a2 2 0 0 1-1.4.6H6Z" fill="inherit"/></svg>
